public/design_8/images/stars.svg

<svg width="96" height="17" viewBox="0 0 96 17" fill="none" xmlns="http://www.w3.org/2000/svg">
<path d="M8.83553 0.996598L11.0805 4.81451L15.2594 5.86759C15.7795 5.99973 16.0989 6.54513 15.9723 7.08847C15.9361 7.24368 15.8679 7.38847 15.7674 7.5101L12.9802 10.9252L13.3136 15.4102C13.3537 15.9682 12.9521 16.4549 12.4179 16.4969C12.2393 16.5116 12.0666 16.4739 11.9159 16.3962L8.00011 14.7054L4.02399 16.4214C3.52802 16.6333 2.96173 16.3878 2.75896 15.8697C2.70273 15.7249 2.67461 15.5676 2.68672 15.4103L3.02008 10.9253L0.232864 7.51017C-0.114592 7.0844 -0.0684154 6.44459 0.339239 6.08163C0.469836 5.96414 0.622388 5.89068 0.779047 5.85716L4.91976 4.81459L7.17283 0.984094C7.454 0.505865 8.05238 0.356863 8.51024 0.650577C8.6487 0.738617 8.75918 0.860246 8.83553 0.996598Z" fill="#FFB800"/>
<path d="M28.8355 0.996598L31.0805 4.81451L35.2594 5.86759C35.7795 5.99973 36.0989 6.54513 35.9723 7.08847C35.9361 7.24368 35.8679 7.38847 35.7674 7.5101L32.9802 10.9252L33.3136 15.4102C33.3537 15.9682 32.9521 16.4549 32.4179 16.4969C32.2393 16.5116 32.0666 16.4739 31.9159 16.3962L28.0001 14.7054L24.024 16.4214C23.528 16.6333 22.9617 16.3878 22.759 15.8697C22.7027 15.7249 22.6746 15.5676 22.6867 15.4103L23.0201 10.9253L20.2329 7.51017C19.8854 7.0844 19.9316 6.44459 20.3392 6.08163C20.4698 5.96414 20.6224 5.89068 20.779 5.85716L24.9198 4.81459L27.1728 0.984094C27.454 0.505865 28.0524 0.356863 28.5102 0.650577C28.6487 0.738617 28.7592 0.860246 28.8355 0.996598Z" fill="#FFB800"/>
<path d="M48.8355 0.996598L51.0805 4.81451L55.2594 5.86759C55.7795 5.99973 56.0989 6.54513 55.9723 7.08847C55.9361 7.24368 55.8679 7.38847 55.7674 7.5101L52.9802 10.9252L53.3136 15.4102C53.3537 15.9682 52.9521 16.4549 52.4179 16.4969C52.2393 16.5116 52.0666 16.4739 51.9159 16.3962L48.0001 14.7054L44.024 16.4214C43.528 16.6333 42.9617 16.3878 42.759 15.8697C42.7027 15.7249 42.6746 15.5676 42.6867 15.4103L43.0201 10.9253L40.2329 7.51017C39.8854 7.0844 39.9316 6.44459 40.3392 6.08163C40.4698 5.96414 40.6224 5.89068 40.779 5.85716L44.9198 4.81459L47.1728 0.984094C47.454 0.505865 48.0524 0.356863 48.5102 0.650577C48.6487 0.738617 48.7592 0.860246 48.8355 0.996598Z" fill="#FFB800"/>
<path d="M68.8355 0.996598L71.0805 4.81451L75.2594 5.86759C75.7795 5.99973 76.0989 6.54513 75.9723 7.08847C75.9361 7.24368 75.8679 7.38847 75.7674 7.5101L72.9802 10.9252L73.3136 15.4102C73.3537 15.9682 72.9521 16.4549 72.4179 16.4969C72.2393 16.5116 72.0666 16.4739 71.9159 16.3962L68.0001 14.7054L64.024 16.4214C63.528 16.6333 62.9617 16.3878 62.759 15.8697C62.7027 15.7249 62.6746 15.5676 62.6867 15.4103L63.0201 10.9253L60.2329 7.51017C59.8854 7.0844 59.9316 6.44459 60.3392 6.08163C60.4698 5.96414 60.6224 5.89068 60.779 5.85716L64.9198 4.81459L67.1728 0.984094C67.454 0.505865 68.0524 0.356863 68.5102 0.650577C68.6487 0.738617 68.7592 0.860246 68.8355 0.996598Z" fill="#FFB800"/>
<path d="M88.8355 0.996598L91.0805 4.81451L95.2594 5.86759C95.7795 5.99973 96.0989 6.54513 95.9723 7.08847C95.9361 7.24368 95.8679 7.38847 95.7674 7.5101L92.9802 10.9252L93.3136 15.4102C93.3537 15.9682 92.9521 16.4549 92.4179 16.4969C92.2393 16.5116 92.0666 16.4739 91.9159 16.3962L88.0001 14.7054L84.024 16.4214C83.528 16.6333 82.9617 16.3878 82.759 15.8697C82.7027 15.7249 82.6746 15.5676 82.6867 15.4103L83.0201 10.9253L80.2329 7.51017C79.8854 7.0844 79.9316 6.44459 80.3392 6.08163C80.4698 5.96414 80.6224 5.89068 80.779 5.85716L84.9198 4.81459L87.1728 0.984094C87.454 0.505865 88.0524 0.356863 88.5102 0.650577C88.6487 0.738617 88.7592 0.860246 88.8355 0.996598Z" fill="#FFB800"/>
</svg>

<svg xmlns="http://www.w3.org/2000/svg" width="96" height="17" fill="none"><path fill="#FFB800" d="m8.836.997 2.245 3.818 4.178 1.053c.52.132.84.677.713 1.22-.036.156-.104.3-.205.422l-2.787 3.415.334 4.485c.04.558-.362 1.045-.896 1.087a.93.93 0 0 1-.502-.1L8 14.704l-3.976 1.716c-.496.212-1.062-.033-1.265-.551a1.05 1.05 0 0 1-.072-.46l.333-4.485L.233 7.51a1.045 1.045 0 0 1 .106-1.428.95.95 0 0 1 .44-.225l4.14-1.042L7.174.985A.95.95 0 0 1 8.51.65c.139.088.25.21.326.346M28.836.997l2.245 3.818 4.178 1.053c.52.132.84.677.713 1.22-.036.156-.104.3-.205.422l-2.787 3.415.334 4.485c.04.558-.362 1.045-.896 1.087a.93.93 0 0 1-.502-.1L28 14.704l-3.976 1.716c-.496.212-1.062-.033-1.265-.551a1.05 1.05 0 0 1-.072-.46l.333-4.485-2.787-3.415a1.045 1.045 0 0 1 .106-1.428.95.95 0 0 1 .44-.225l4.14-1.042 2.254-3.83A.95.95 0 0 1 28.51.65c.139.088.25.21.325.346M48.836.997l2.245 3.818 4.178 1.053c.52.132.84.677.713 1.22-.036.156-.104.3-.205.422l-2.787 3.415.334 4.485c.04.558-.362 1.045-.896 1.087a.93.93 0 0 1-.502-.1L48 14.704l-3.976 1.716c-.496.212-1.062-.033-1.265-.551a1.05 1.05 0 0 1-.072-.46l.333-4.485-2.787-3.415a1.045 1.045 0 0 1 .106-1.428.95.95 0 0 1 .44-.225l4.14-1.042 2.254-3.83A.95.95 0 0 1 48.51.65c.139.088.25.21.326.346M68.836.997l2.245 3.818 4.178 1.053c.52.132.84.677.713 1.22-.036.156-.104.3-.205.422l-2.787 3.415.334 4.485c.04.558-.362 1.045-.896 1.087a.93.93 0 0 1-.502-.1L68 14.704l-3.976 1.716c-.496.212-1.062-.033-1.265-.551a1.05 1.05 0 0 1-.072-.46l.333-4.485-2.787-3.415a1.045 1.045 0 0 1 .106-1.428.95.95 0 0 1 .44-.225l4.14-1.042 2.254-3.83A.95.95 0 0 1 68.51.65c.139.088.25.21.325.346M88.836.997l2.245 3.818 4.178 1.053c.52.132.84.677.713 1.22-.036.156-.104.3-.205.422l-2.787 3.415.334 4.485c.04.558-.362 1.045-.896 1.087a.93.93 0 0 1-.502-.1L88 14.704l-3.976 1.716c-.496.212-1.062-.033-1.265-.551a1.05 1.05 0 0 1-.072-.46l.333-4.485-2.787-3.415a1.045 1.045 0 0 1 .106-1.428.95.95 0 0 1 .44-.225l4.14-1.042 2.254-3.83A.95.95 0 0 1 88.51.65c.139.088.25.21.325.346"/></svg>
